images/glq.svg

<svg height="250" viewBox="0 0 250 250" width="250" xmlns="http://www.w3.org/2000/svg"><path d="m248.457031 125c0 69.035156-55.273437 125-123.457031 125s-123.457031-55.964844-123.457031-125 55.273437-125 123.457031-125 123.457031 55.964844 123.457031 125zm0 0" fill="#4d9afb"/><path d="m190.914062 125.339844-47.4375-27.738282v24.160157c0 5.042969 2.65625 9.707031 6.96875 12.230469l26.652344 15.582031-16.667968 29.230469h-33.792969v-107.609376h33.792969l14.746093 25.867188c4.878907 8.570312 15.699219 11.507812 24.15625 6.5625l8.914063-5.175781-26.070313-45.679688c-3.28125-5.753906-9.339843-9.300781-15.902343-9.3125h-72.402344c-6.203125 0-11.933594 3.347657-15.039063 8.785157l-36.414062 63.847656c-3.144531 5.511718-3.144531 12.308594 0 17.820312l36.21875 63.476563c3.238281 5.6875 9.230469 9.191406 15.714843 9.1875h71.902344c6.585938.007812 12.679688-3.542969 15.984375-9.3125l25.875-45.359375c3.890625-6.835938 1.578125-15.570313-5.171875-19.515625zm-91.707031 53.464844h-.144531l-10.21875-17.953126-20.285156-35.5625-.152344-.289062 30.65625-53.804688h.144531zm0 0" fill="#fff"/></svg>

<svg xmlns="http://www.w3.org/2000/svg" xmlns:xlink="http://www.w3.org/1999/xlink" width="250px" height="250px" viewBox="0 0 250 250" version="1.1">
<g id="surface1">
<path style=" stroke:none;fill-rule:nonzero;fill:rgb(30.19608%,60.392159%,98.431373%);fill-opacity:1;" d="M 248.457031 125 C 248.457031 194.035156 193.183594 250 125 250 C 56.816406 250 1.542969 194.035156 1.542969 125 C 1.542969 55.964844 56.816406 0 125 0 C 193.183594 0 248.457031 55.964844 248.457031 125 Z M 248.457031 125 "/>
<path style=" stroke:none;fill-rule:nonzero;fill:rgb(100%,100%,100%);fill-opacity:1;" d="M 190.914062 125.339844 L 143.476562 97.601562 L 143.476562 121.761719 C 143.476562 126.804688 146.132812 131.46875 150.445312 133.992188 L 177.097656 149.574219 L 160.429688 178.804688 L 126.636719 178.804688 L 126.636719 71.195312 L 160.429688 71.195312 L 175.175781 97.0625 C 180.054688 105.632812 190.875 108.570312 199.332031 103.625 L 208.246094 98.449219 L 182.175781 52.769531 C 178.894531 47.015625 172.835938 43.46875 166.273438 43.457031 L 93.871094 43.457031 C 87.667969 43.457031 81.9375 46.804688 78.832031 52.242188 L 42.417969 116.089844 C 39.273438 121.601562 39.273438 128.398438 42.417969 133.910156 L 78.636719 197.386719 C 81.875 203.074219 87.867188 206.578125 94.351562 206.574219 L 166.253906 206.574219 C 172.839844 206.582031 178.933594 203.03125 182.238281 197.261719 L 208.113281 151.902344 C 212.003906 145.066406 209.691406 136.332031 202.941406 132.386719 Z M 99.207031 178.804688 L 99.0625 178.804688 L 88.84375 160.851562 L 68.558594 125.289062 L 68.40625 125 L 99.0625 71.195312 L 99.207031 71.195312 Z M 99.207031 178.804688 "/>
</g>
</svg>
